X:1
T:Schwanengesang
T:Der Atlas
T:8. Der Atlas
T:Franz Schubert
T:Schwanengesang (D.957)
T:Heinrich Heine
T:OpenScore (CC0)
T:OpenScore (CC0)
T:OpenScore (CC0)
T:OpenScore (CC0)
C:Franz Schubert
Z:Heinrich Heine
Z:OpenScore (CC0)
%%score 1 { 2 | 3 }
L:1/8
Q:1/4=90
M:3/4
K:Gmin
V:1 treble nm="Voice"
V:2 bass nm="Piano"
V:3 bass 
V:1
"^Etwas geschwind." z6 | z6 | z6 | z2 z2 z3/2!mf! D/ | G7/2 G/ G3/2 B/ | ^F2 F2 z3/2 D/ | %6
w: |||Ich|un glück sel'- ger|At- las, ich|
 G7/2 d/ B3/2 G/ | ^F2 F2 D3/2 D/ | B4 G2 | e7/2 d/ c3/2 B/ | A2 A2 d3/2 d/ | B2 G3/2 G/ e3/2 e/ | %12
w: un- glück sel'- ger|At- las! ei- ne|Welt, die|gan- ze Welt der|Schmer- zen muss ich|tra- gen, die gan- ze|
 A4 d3/2 d/ | B2 G2 z2 | z2 z2 z G | G3 G G G | ^G3/2 _A/ G2 z G | ^G3/2 ^A/ =B ^c/ c/ d ^e | ^f6 | %19
w: Welt muss ich|tra- gen,|ich|tra- ge Un- er|träg- li- ches, und|bre- chen will  mir   das Herz im|Lei-|
!f! =B2 z2 z2 | z6 | z6 | z2 z3/2!mp! ^F/ ^D3/2 F/ |!mf! =B4 z!mp! B |!mf! ^c7/2 c/!mp! ^A3/2 ^F/ | %25
w: be.|||Du stol- zes|Herz, du|hast es ja ge-|
 =B2 z2 z2 | z2 z3/2 ^F/ ^D3/2 F/ | ^c3/2 =B/ B2 z ^d |!mf! =e4!mp!!>(! ^c^A | %29
w: wollt!|Du woll- test|glück- lich sein, un-|end- lich _|
 ^c2 =B z (3B B B!>)! |!p! =c4 =B2 | =BA G2 z B | c4 =B2 | =BA G2 z2 | z2 z2 =B3/2 ^c/ | d4 d2 | %36
w: glück- lich, o- der un-|end- lich|e- * lend, un-|end- lich|e- * lend,|stol- zes|Herz, und|
 g3 _e c A | d6 |!f! G2 z2 z3/2!mf! d/ | d7/2 c/ B3/2 A/ | B2 G2 z3/2 e/ | d7/2 c/ B3/2 A/ | %42
w: je- tzo bist du|e-|lend. Ich|un- glück- sel'- ger|At- las, ich|un- glück- sel'- ger|
 B2 G2 z3/2 G/ | e7/2 d/ c3/2 B/ | A2 A2 d3/2 d/ | B2 G3/2 G/ e3/2 e/ | A4 d3/2 d/ | %47
w: At- las! die|gan- ze Welt der|Schmer- zen muss ich|tra- gen, die gan- ze|Welt muss ich|
 B2 G2 z[Q:1/4=90] G |[Q:1/4=88]"^.6" G3[Q:1/4=84]"^.3" B[Q:1/4=82]"^.9" d[Q:1/4=81]"^.4" g | %49
w: tra- gen, die|gan- ze Welt der|
[Q:1/4=80] _a3[Q:1/4=75]"^.7" a[Q:1/4=74]"^.3" g[Q:1/4=72]"^.9" ^f | %50
w: Schmer- zen muss ich|
[Q:1/4=71]"^.4" g6[Q:1/4=67]"^.1" |[Q:1/4=62]"^.9" G2[Q:1/4=90] z2 z2 | z6 | z6 | z6 | %55
w: tra-|gen.||||
 !fermata!z6 |] %56
w: |
V:2
 [G,B,]/4D/4[G,B,]/4D/4[G,B,]/4D/4[G,B,]/4D/4 [G,B,]/4D/4[G,B,]/4D/4[G,B,]/4D/4[G,B,]/4D/4 [G,B,]/4D/4[G,B,]/4D/4[G,B,]/4D/4[G,B,]/4D/4 | %1
!>(! [^F,B,]/4D/4[F,B,]/4D/4[F,B,]/4D/4[F,B,]/4D/4!>)!!mp! !///-![G,B,]2 D2 | %2
!f!!>(! [^F,B,]/4D/4[F,B,]/4D/4[F,B,]/4D/4[F,B,]/4D/4!>)!!mp! !///-![G,B,]2 D2 | !///-![G,B,]3 D3 | %4
 !///-![G,B,]3 D3 |!mf!!>(! !///-![A,C]3!p! D3!>)! | !///-![G,B,]3 D3 | %7
!mf!!>(! !///-![A,C]3!p! D3!>)! | !///-![G,B,]3 D3 | %9
 !///-![G,A,]2 C2 [G,B,]/4D/4[G,B,]/4D/4[G,B,]/4D/4[G,B,]/4D/4 | %10
 !///-![G,C]2 E2 [^F,C]/4D/4[F,C]/4D/4[F,C]/4D/4[F,C]/4D/4 | %11
 !///-![G,B,]2 D2 [G,A,]/4C/4[G,A,]/4C/4[G,A,]/4C/4[G,A,]/4C/4 | %12
 !///-![G,C]2 E2 [^F,C]/4D/4[F,C]/4D/4[F,C]/4D/4[F,C]/4D/4 | !///-![G,B,]3 D3 | %14
!mf!!>(! [^F,B,]/4D/4[F,B,]/4D/4[F,B,]/4D/4[F,B,]/4D/4!>)! !///-![G,B,]2!p! D2 | !///-![G,B,]3 D3 | %16
 !///-![=F,=B,]3 D3 | !///-![F,=B,]2 D2 [^G,B,]/4D/4[G,B,]/4D/4[G,B,]/4D/4[G,B,]/4D/4 | %18
!>(! !///-![^F,=B,]2 ^C2 [F,^A,]/4C/4[F,A,]/4C/4[F,A,]/4C/4[F,A,]/4C/4!>)! | %19
!f! !///-![D,^F,]3 =B,3 | !///-![=E,G,^A,]3 ^C3 | %21
 (3z!p! [^D,^F,=B,][D,F,B,] (3z [D,F,B,][D,F,B,] (3z [D,F,B,][D,F,B,] | %22
 (3z!p! [^D,^F,=B,][D,F,B,] (3z [D,F,B,][D,F,B,] (3z [D,F,B,][D,F,B,] | %23
 (3z!p!!<(! [^D,^F,=B,][D,F,B,] (3z [D,F,B,][D,F,B,] (3z [D,F,B,][D,F,B,]!<)! | %24
!f! (3z!mf!!>(! [=E,G,^A,^C][E,G,A,C] (3z [E,G,A,C][E,G,A,C] (3z [E,^F,A,C][E,F,A,C]!>)! | %25
 (3z [^D,^F,=B,][D,F,B,] (3z [D,F,B,][D,F,B,] (3z [D,F,B,][D,F,B,] | %26
 (3z [^D,^F,=B,][D,F,B,] (3z [D,F,B,][D,F,B,] (3z [D,F,B,][D,F,B,] | %27
 (3z [^D,^F,=B,][D,F,B,] (3z [D,^^F,B,][D,F,B,] (3z [D,^G,B,][D,G,B,] | %28
 (3z!p!!>(! [=E,=G,^A,^C][E,G,A,C] (3z [E,G,A,C][E,G,A,C] (3z!>)! [E,^F,A,C][E,F,A,C] | %29
 (3z [^D,^F,=B,][D,F,B,] (3z [D,F,B,][D,F,B,] (3z [D,F,B,][D,F,B,] | %30
 (3z [^F,=C^D][F,CD] (3z [F,CD][F,CD] (3z [G,=B,=E][G,B,E] | %31
 (3z [A,=B,^D][A,B,D] (3z [G,B,=E][G,B,E] (3z [G,B,E][G,B,E] | %32
 (3z [^F,=C^D][F,CD] (3z [F,CD][F,CD] (3z [G,=B,=E][G,B,E] | %33
 (3z [A,=B,^D][A,B,D] (3z [G,B,=E][G,B,E] (3z [G,B,E][G,B,E] | %34
 (3z [G,=B,=E][G,B,E] (3z [G,B,E][G,B,E] (3z [G,B,E][G,B,E] | %35
 (3z [G,_B,D][G,B,D] (3z [G,B,D][G,B,D] (3z [G,B,D][G,B,D] | %36
 (3z[K:treble] [A,_EG][A,EG] (3z [A,EG][A,EG] (3z [A,EG][A,EG] | !///-![A,D]2 G2 !///-![A,D] ^F | %38
 [A,DG]/[K:bass]!mf! [G,B,]/4D/4[G,B,]/4D/4[G,B,]/4D/4 !///-![G,B,]2 D2 | %39
!>(! !///-![A,C]3!p! D3!>)! | !///-![G,B,]3 D3 |!mf!!>(! !///-![A,C]3!p! D3!>)! | %42
 !///-![G,B,]3 D3 | !///-![G,A,]2 C2 !///-![G,B,] D | !///-![G,C]2 E2 !///-![^F,C] D | %45
 !///-![G,B,]2 D2 !///-![G,A,] C | !///-![G,C]2 E2 !///-![^F,C] D | !///-![G,B,]3 D3 | %48
!mf! !///-![G,B,]3 D3 |!>(! !///-![_A,B,]3 D3!>)! |!mf! !///-![G,B,]3!mp! D3 | !///-![G,B,]3 D3 | %52
!p!!>(! !///-![^F,B,] D!pp! !///-![G,B,]2!>)! D2 | %53
!p!!>(! !///-![^F,B,] D!pp! !///-![G,B,]2!>)! D2 |!pp!!<(! !///-![G,B,]3!p! D3!<)! | %55
!f! !fermata![G,B,D]6 |] %56
V:3
!f! [G,,,G,,]2 [G,,,G,,]2 z3/2 [B,,,B,,]/ | ([^F,,,^F,,]2 [G,,,G,,]2) z3/2 [B,,,B,,]/ | %2
 ([^F,,,^F,,]2 [G,,,G,,]2) z3/2 D,,/ | [G,,,G,,]2 [G,,,G,,]2 z3/2 D,,/ | %4
!mf! [G,,,G,,]4 [G,,,G,,]>[B,,,B,,] | [^F,,,^F,,]2 [F,,,F,,]2 z3/2 D,,/ | %6
 [G,,,G,,]7/2 [G,,,G,,]/ [G,,,G,,]>[B,,,B,,] | [^F,,,^F,,]2 [F,,,F,,]2 z3/2 D,,/ | %8
 [B,,,B,,]4 [G,,,G,,]2 | [E,,E,]7/2 [D,,D,]/ [C,,C,]>[B,,,B,,] | [A,,,A,,]4 [D,,D,]>[D,,D,] | %11
 [G,,,G,,]7/2 [G,,,G,,]/ [E,,E,]>[E,,E,] | [A,,,A,,]4 [D,,D,]>[D,,D,] | %13
 [G,,,G,,]2 [G,,,G,,]2 z3/2 [B,,,B,,]/ | (([^F,,,^F,,]2 [G,,,G,,]2)) z [G,,,G,,] | %15
 [G,,,G,,]3 [G,,,G,,][G,,,G,,][G,,,G,,] |"_cresc." [^G,,,^G,,]>[G,,,G,,] [G,,,G,,]2 z [G,,,G,,] | %17
 [^G,,,^G,,]>[^A,,,^A,,] [=B,,,=B,,][^C,,^C,] [D,,D,][^E,,^E,] | %18
!fff! !///-!^F,,,2 ^F,,2 F,,,/4F,,/4F,,,/4F,,/4F,,,/4F,,/4F,,,/4F,,/4 | !///-!=B,,,3 =B,,3 | %20
 !///-!=B,,,3 =B,,3 |!f! [=B,,,=B,,]z[^D,,^D,]z[^A,,,^A,,] z | %22
!f! [=B,,,=B,,]z[^D,,^D,]z[^A,,,^A,,] z |!f! [=B,,,=B,,]z[^A,,,^A,,]z[^G,,,^G,,] z | %24
 [=G,,,=G,,]z[G,,,G,,]z[^F,,,^F,,] z |!p! [=B,,,=B,,]z[^D,,^D,]z[^A,,,^A,,] z | %26
 [=B,,,=B,,]z[^D,,^D,]z[^A,,,^A,,] z | [=B,,,=B,,]z[^A,,,^A,,]z[^G,,,^G,,] z | %28
!f! [=G,,,=G,,]z[G,,,G,,]z[^F,,,^F,,] z | [=B,,,=B,,]z"^dim."[B,,,B,,]z[B,,,B,,] z | %30
!pp! [=A,,,=A,,]z[A,,,A,,]z[G,,,G,,] z | ^F,,z=E,, z (3.E,,.F,,.G,, | %32
 [=A,,,=A,,]z[A,,,A,,]z[G,,,G,,] z | ^F,,z=E,, z E,,>F,, | %34
"_cresc." G,, z G,, z [G,,,G,,]>[A,,,A,,] |!mp!"_cresc." [_B,,,_B,,] z [B,,,B,,] z [B,,,B,,] z | %36
!f!"_cresc." [C,,C,] z [C,,C,] z [C,,C,] z |!fff! !///-!D,,3 D,3 | %38
 [G,,,G,,]2 [G,,,G,,]7/2 [B,,,B,,]/ | [^F,,,^F,,]2 [F,,,F,,]2 z3/2 D,,/ | %40
 [G,,,G,,]2 [G,,,G,,]7/2 [B,,,B,,]/ | [^F,,,^F,,]2 [F,,,F,,]2 z3/2 D,,/ | %42
 [G,,,G,,]2 [G,,,G,,]7/2 [B,,,B,,]/ | [E,,E,]7/2 [D,,D,]/ [C,,C,]>[B,,,B,,] | %44
 [A,,,A,,]4 [D,,D,]>[D,,D,] | [G,,,G,,]4 [E,,E,]>[E,,E,] | [A,,,A,,]4 [D,,D,]>[D,,D,] | %47
 [G,,,G,,]4 z [G,,,G,,] |!<(! [G,,,G,,]3 [G,,,G,,][G,,,G,,][G,,,G,,]!<)! | %49
!fff! !///-!_A,,,3 _A,,3 | !///-!G,,,3 G,,3 |!p! [G,,,G,,]2 z2 z3/2 [B,,,B,,]/ | %52
 (([^F,,,^F,,]2 [G,,,G,,]2)) z3/2 [B,,,B,,]/ | (([^F,,,^F,,]2 [G,,,G,,]2)) z3/2 [B,,,B,,]/ | %54
 [G,,,G,,]2 [G,,,G,,]2 z2 | !fermata![G,,,G,,]6 |] %56

